X:39
T:Taylor's Ale
M:4/4
L:1/8
C:Taz Tarry
S:Copyright B.Tarry 31/9/2006
Q:1/4=160
K:D
|:a2fe dBAF|D2 FA ABcA|f2fe dBAF|ABce d z e2|
a2fe dBAF|D2 FA ABcA|ABcd efge|afec d2d2:|
|:FAAA BAFA|ABce ecBA|FAAA BAFA|ABce d z A z|
FAAA BAFA|DEFD FABF|ABcd efge|afec d2 A2:|

